X:1
T: Brisk Rob
C:
R:Strathspey
Q: 128
K:Bm
M:4/4
L:1/16
|:Bc|d3B f3B dB3 B3c|d3e fedc dA3 A2Bc|d3B f3B dB3 B3d|efg2 f3e dB3 B3c|
d3B f3B dB3 B3c|d3e fedc dA3 A2Bc|B3d c3e d3f e3g|fd3 fedc dB3 B2f2|
a3f g3e f3d B3c|d3B fedc eA3 A3f|a3f g3e f3d B3g|f3d fedc dB3 B3f|
a3f g3e f3d B3c|d3B fedc eA3 A2Bc|d3B e3c f3d g3e|f3d fedc dB3 B2:|
